X: 8343
T: Cotton-Tail, The
R: slip jig
M: 9/8
K: Gmajor
d|GAB d2 d e2 e|A2 A BAG E2 D|GAB A2 A GAB|d2 d e2 e gag|
G3 A2 B dBG|E2 G F3 G2 d|Bdg g2 g abd|e2 e g2 g abG|
A3 BAG E2 D|E2 G A2 B dBG|E2 D E2 G G2:|

